icons/security-32.svg

<svg id="icons" xmlns="http://www.w3.org/2000/svg" viewBox="0 0 32 32"><path d="M16.5,30.30176C4.30566,23.514,4.58283,13.41684,5.20752,6.38477L5.29736,5.376l.99952-.05176c5.32812-.27344,7.79492-1.62305,9.86083-3.56445L16.5,1.4375l.34229.32227c2.06542,1.9414,4.53222,3.291,9.86035,3.56445l1,.05176.08984,1.00879C28.41488,13.39109,28.69913,23.51137,16.5,30.30176Zm-.06885-1.18262.06885.03809.06934-.03809c10.27539-5.7334,10.936-14.665,10.227-22.64648l-.0127-.14356-.13232-.00683C21.30518,6.04785,18.6582,4.72559,16.5,2.80176,14.34131,4.72559,11.69434,6.04883,6.34814,6.32227l-.13183.00683-.0127.14356C5.49463,14.4541,6.15527,23.38574,16.43115,29.11914ZM24.9458,8.62207l-.02246-.42187-.41943-.04883a16.71794,16.71794,0,0,1-7.72364-2.58692l-.56054.82813a17.34915,17.34915,0,0,0,7.74756,2.70117c.25048,5.75977-.56495,12.18262-7.73536,16.73633l.53614.84375C24.59229,21.70508,25.24854,14.417,24.9458,8.62207Z"/><path fill="none" d="M0 0h32v32H0z"/></svg>

<svg xmlns="http://www.w3.org/2000/svg" viewBox="0 0 32 32"><path d="M16.5 30.302C4.306 23.514 4.583 13.417 5.208 6.385l.09-1.009.999-.052c5.328-.273 7.795-1.623 9.86-3.564l.343-.323.342.323c2.066 1.941 4.533 3.29 9.86 3.564l1 .052.09 1.009c.623 7.006.907 17.126-11.292 23.917zm-.069-1.183l.069.038.07-.038c10.275-5.733 10.935-14.665 10.226-22.646l-.012-.144-.133-.007c-5.346-.274-7.993-1.596-10.151-3.52-2.159 1.924-4.806 3.247-10.152 3.52l-.132.007-.012.144c-.71 7.981-.049 16.913 10.227 22.646zm8.515-20.497l-.023-.422-.42-.049a16.718 16.718 0 0 1-7.723-2.587l-.56.829a17.35 17.35 0 0 0 7.747 2.7c.25 5.76-.565 12.183-7.735 16.737l.536.844c7.824-4.969 8.48-12.257 8.178-18.052z"/><path fill="none" d="M0 0h32v32H0z"/></svg>
